Sources/FrostedUI/Resources/Icons.xcassets/receptionBell16.imageset/reception-bell-16.svg

<svg width="16" height="16" viewBox="0 0 16 16" fill="none" xmlns="http://www.w3.org/2000/svg" data-fui-icon="true">
  <path
    d="M10 1C10.4142 1 10.75 1.33579 10.75 1.75C10.75 2.16421 10.4142 2.5 10 2.5H8.75V3.78223C10.6737 3.94558 12.1369 4.73938 13.1631 5.90527C14.3011 7.19822 14.8517 8.88816 14.9736 10.5283C15.036 11.3677 14.3491 12 13.583 12H8.75V13.5H14.25C14.6642 13.5 15 13.8358 15 14.25C15 14.6642 14.6642 15 14.25 15H1.75C1.3358 15 1 14.6642 1 14.25C1 13.8358 1.3358 13.5 1.75 13.5H7.25V12H2.41699C1.65093 12 0.963958 11.3676 1.02637 10.5283L1.05469 10.2207C1.21971 8.67871 1.76995 7.11751 2.83691 5.90527C3.86315 4.73937 5.32635 3.94559 7.25 3.78223V2.5H6C5.5858 2.49999 5.25 2.16421 5.25 1.75C5.25 1.33579 5.5858 1.00001 6 1H10ZM8 5.25C6.10416 5.25001 4.81486 5.9278 3.96289 6.89551C3.12217 7.85065 2.65935 9.14624 2.53516 10.5H13.4648C13.3406 9.14624 12.8778 7.85066 12.0371 6.89551C11.1851 5.9278 9.89585 5.25 8 5.25Z"
    fill="currentColor"
  />
</svg>

<svg xmlns="http://www.w3.org/2000/svg" width="16" height="16" fill="none" data-fui-icon="true" viewBox="0 0 16 16"><path fill="currentColor" d="M10 1a.75.75 0 0 1 0 1.5H8.75v1.282c1.924.164 3.387.957 4.413 2.123 1.138 1.293 1.689 2.983 1.81 4.623.063.84-.624 1.472-1.39 1.472H8.75v1.5h5.5a.75.75 0 0 1 0 1.5H1.75a.75.75 0 0 1 0-1.5h5.5V12H2.417c-.766 0-1.453-.632-1.39-1.472l.028-.307c.165-1.542.715-3.103 1.782-4.316 1.026-1.166 2.49-1.96 4.413-2.123V2.5H6A.75.75 0 0 1 6 1zM8 5.25c-1.896 0-3.185.678-4.037 1.646-.84.955-1.304 2.25-1.428 3.604h10.93c-.124-1.354-.587-2.65-1.428-3.604C11.185 5.928 9.896 5.25 8 5.25"/></svg>
